X: 34976
T: Roddy McDonald's Fancy
R: reel
M: 4/4
K: Amajor
af|:ecBd cA~A2|BccB c2af|ecBd cAAB|cffe f2af:|
~e3f ~a3f|e2cA BAFA|ecef a2fe|Bffe f2ec|
~e3f ~a3f|e2cA BAaf|ecBd cAAB|cffe f2ec||
|:~B3c A3B|BccB c2af|ecBd cAAB|1 cffe f2ec:|2 cffe f2ef||
a2ef aefa|efae f2ef|a2ef aefe|cffe f2ef|
ac'ba fbaf|eafe Bcaf|ecBd cAAB|cffe f2af||

